X:7772
T:unkn
O:england
N:IrTrad, 6/99
H:Pippa Longstocking Theme
M:2/4
L:1/8
K:G
DG BG|A2 c/B/A/G/|FA DF|G2B2|DG BG|A2 c/B/A/G/|FA DF|G4::\
B2 BB|c2 cB|AA GF|GA B2|B2 BB|c2 cB|AA GF|1G4:|2\
M:4/4
G2B2 c2d2|:e3g fedc|d3f edcB|c3e dcBA|1B2c2 dBcd:|2B2A2 G4|]


